!!!!SEGMENT: Boy2001-In_principio.krn
!!!id: Boy2001
!!!AGN: Motet
!!!voices: 4
!!!COM: Simon Boyleau
!!!OTL: In principio
**kern	**kern	**kern	**kern
*part4	*part3	*part2	*part1
*staff4	*staff3	*staff2	*staff1
*I"Bassus	*I"Tenor	*I"Altus	*I"Superius
*I'B	*I'T	*I'A	*I'S
*clefF4	*clefGv2	*clefGv2	*clefG2
*k[]	*k[]	*k[]	*k[]
*C:	*C:	*C:	*C:
*M2/1	*M2/1	*M2/1	*M2/1
*met(C|)	*met(C|)	*met(C|)	*met(C|)
!!section: Prima pars: In principio
!!!OMD: Prima pars: In principio
=1	=1	=1	=1
1r	0r	0B	0r
[1E	.	.	.
=2	=2	=2	=2
1E]	0r	1c	0r
1F	.	[1d	.
=3	=3	=3	=3
1.G	0r	2d]	0r
.	.	2G	.
.	.	1G	.
2C	.	.	.
=4	=4	=4	=4
0C	0E	1r	0r
.	.	1G	.
=5	=5	=5	=5
0r	1F	1A	0r
.	[1G	2.B	.
.	.	4E	.
=6	=6	=6	=6
0C	2G]	2E	0e
.	2C	1G	.
.	1C	.	.
.	.	[2A	.
=7	=7	=7	=7
1D	0r	2A]	1f
.	.	1B	.
[1E	.	.	[1g
.	.	2E	.
=8	=8	=8	=8
2E]	0E	2E	2g]
2AA	.	2A	2c
[1AA	.	1c	[1c
=9	=9	=9	=9
1AA]	1F	1A	1c]
1GG	[1G	1B	2r
.	.	.	2B
=10	=10	=10	=10
1C	2G]	2G	1e
.	2C	2.c	.
1AA	2C	.	1c
.	.	4B	.
.	[2E	[2A	.
=11	=11	=11	=11
0BB	2E]	2A]	0d
.	4D	4G#i	.
.	4C	4F#i	.
.	1D	1G#i	.
=12	=12	=12	=12
0AA	1r	0A	2c
.	.	.	2a
.	1E	.	2cc
.	.	.	2a
=13	=13	=13	=13
0r	1G	1r	2b
.	.	.	2.g
.	1E	1B	.
.	.	.	4a
.	.	.	2b
=14	=14	=14	=14
0r	1F	1d	2.a
.	.	.	8gL
.	.	.	8fJ
.	1E	1B	4g
.	.	.	4f
.	.	.	4e
.	.	.	4d
=15	=15	=15	=15
0r	1r	1c	2e
.	.	.	2.a
.	1E	1B	.
.	.	.	8g#iL
.	.	.	8f#iJ
.	.	.	2g#i
=16	=16	=16	=16
1AA	2E	1r	0a
.	2E	.	.
2AA	1F	1A	.
2AA	.	.	.
=17	=17	=17	=17
1BB	1G	0r	1r
1C	[1E	.	1e
=18	=18	=18	=18
0AA	1E]	1A	2e
.	.	.	2e
.	1r	2A	1f
.	.	2A	.
=19	=19	=19	=19
0r	1r	1B	1g
.	2r	1c	1e
.	2C	.	.
=20	=20	=20	=20
2r	2F	2A	0r
2GG	2D	2B	.
2C	1E	2G	.
2AA	.	[2A	.
=21	=21	=21	=21
1BB	1D	4A]	2r
.	.	8G#iL	.
.	.	8F#iJ	.
.	.	2G#i	2g
1AA	1r	1A	2cc
.	.	.	2a
=22	=22	=22	=22
0r	2r	2G	4b
.	.	.	4a
.	2G	1E	4g
.	.	.	4f
.	2c	.	2e
.	2A	2F	[2a
=23	=23	=23	=23
0r	1B	2D	4a]
.	.	.	8g#iL
.	.	.	8f#iJ
.	.	2E	2g#i
.	[1A	2r	[1a
.	.	2c	.
=24	=24	=24	=24
1D	1A]	2f	0a_
.	.	2d	.
1C	1r	4e	.
.	.	4d	.
.	.	4c	.
.	.	4B	.
=25	=25	=25	=25
1D	0r	2A	1a]
.	.	2.d	.
1E	.	.	2r
.	.	8c#iL	.
.	.	8BJ	.
.	.	2c#i	2g
=26	=26	=26	=26
1D	1r	2d	2.f
.	.	2D	.
.	.	.	4g
2r	1A	2F	4a
.	.	.	4b
2C	.	[2E	2cc
=27	=27	=27	=27
1BB	1G	4E]	2.dd
.	.	8DL	.
.	.	8CJ	.
.	.	2D	.
.	.	.	8ccL
.	.	.	8bJ
1AA	1A	2E	4cc
.	.	.	4b
.	.	2F	4a
.	.	.	4g
=28	=28	=28	=28
0D	1B	2r	4f
.	.	.	4e
.	.	2.F	4d
.	.	.	4c
.	[1A	.	4d
.	.	4G	4c
.	.	4A	[2f
.	.	4B	.
=29	=29	=29	=29
1C	2A]	1c	4f]
.	.	.	4e
.	2G	.	1e
1D	1F	2r	.
.	.	[2A	2d
=30	=30	=30	=30
1AA	[0E	2A]	0e
.	.	2A	.
2r	.	[1c	.
[2AA	.	.	.
=31	=31	=31	=31
2AA]	1E]	2c]	2r
2AA	.	4B	1e
.	.	4A	.
[1C	2r	[1e	.
.	[2E	.	2e
=32	=32	=32	=32
2C]	2E]	0e]	1.g
4BB	2E	.	.
4AA	.	.	.
[1E	[1G	.	.
.	.	.	4f
.	.	.	4e
=33	=33	=33	=33
1E]	2G]	2r	1b
.	4F	1e	.
.	4E	.	.
[1E	1B	.	[1g
.	.	2e	.
=34	=34	=34	=34
2E]	2r	2e	2g]
2E	1B	2e	2g
2E	.	[1e	2g
2E	2B	.	2g
=35	=35	=35	=35
1AA	2c	1e]	1a
.	2c	.	.
1E	2B	2r	2r
.	[2c	[2e	2g
=36	=36	=36	=36
1F	2c]	2e]	2.a
.	4B	2d	.
.	4A	.	4b
2E	2G	4e	4cc
.	.	4d	4b
[2F	2A	4c	4a
.	.	4B	4g
=37	=37	=37	=37
2F]	2c	2A	4f
.	.	.	4e
2D	2d	2f	2.a
1E	1B	[1e	.
.	.	.	4g#i
.	.	.	4g#i
.	.	.	4f#i
=38	=38	=38	=38
0AA	0A	1e]	0a
.	.	2r	.
.	.	[2c	.
=39	=39	=39	=39
0r	0r	2c]	2r
.	.	2c	1g
.	.	2.c	.
.	.	.	2g
.	.	4d	.
=40	=40	=40	=40
0r	0r	2e	2.g
.	.	2c	.
.	.	.	4a
.	.	2d	2b
.	.	[2e	2b
=41	=41	=41	=41
0r	0r	4e]	2b
.	.	4d	.
.	.	4c	1cc
.	.	4B	.
.	.	1A	.
.	.	.	4b
.	.	.	4a
=42	=42	=42	=42
0r	0r	2r	1g
.	.	2.c	.
.	.	.	2r
.	.	4B	.
.	.	4c	2g
.	.	4d	.
=43	=43	=43	=43
0r	1r	2e	2g
.	.	2.f	2.a
.	2r	.	.
.	.	4e	4g
.	2G	[2e	4f
.	.	.	4e
=44	=44	=44	=44
1r	2A	2e]	1f
.	2B	2d	.
2r	2.c	1e	1e
2C	.	.	.
.	4B	.	.
=45	=45	=45	=45
2D	2A	0r	2r
2E	2G	.	2g
2.F	[1c	.	2.a
4G	.	.	4b
=46	=46	=46	=46
1A	2c]	2r	1cc
.	2A	2c	.
1G	1B	2d	1b
.	.	2e	.
=47	=47	=47	=47
2.F	1.c	1f	2.a
8EL	.	.	8gL
8DJ	.	.	8fJ
[1C	.	1e	1g
.	4B	.	.
.	4A	.	.
=48	=48	=48	=48
1C]	1G	2r	2r
.	.	2c	2e
1r	1r	2d	2f
.	.	2c	2e
=49	=49	=49	=49
1r	1r	1d	1f
2r	2r	[1A	1e
2C	2E	.	.
=50	=50	=50	=50
2D	2F	1A]	2r
2C	2E	.	2.e
1D	1F	2r	.
.	.	.	8dL
.	.	.	8cJ
.	.	2A	2d
=51	=51	=51	=51
1AA	0E	1c	[0e
1r	.	2B	.
.	.	[2c	.
=52	=52	=52	=52
1AA	1r	2c]	0e]
.	.	4B	.
.	.	4A	.
1C	1E	1G	.
=53	=53	=53	=53
2BB	1G	0r	0r
1C	.	.	.
.	1A	.	.
[2D	.	.	.
=54	=54	=54	=54
2D]	1B	0r	0r
4C	.	.	.
4BB	.	.	.
1AA	1c	.	.
=55	=55	=55	=55
1E	2B	0r	0r
.	1c	.	.
1F	.	.	.
.	4B	.	.
.	4A	.	.
=56	=56	=56	=56
2E	2.G	0r	0r
2C	.	.	.
.	4F	.	.
2.G	4E	.	.
.	4D	.	.
.	[2C	.	.
4F	.	.	.
=57	=57	=57	=57
4E	4C]	0r	0r
4D	4D	.	.
4C	4E	.	.
4D	4F	.	.
4E	4G	.	.
4F	4A	.	.
4G	4B	.	.
4E	4c	.	.
=58	=58	=58	=58
4F	2d	0r	1r
4E	.	.	.
4D	2.c	.	.
4C	.	.	.
1D	.	.	2r
.	8BL	.	.
.	8AJ	.	.
.	2B	.	2f
=59	=59	=59	=59
1C	1c	2r	2e
.	.	2c	2e
1r	1r	2B	2.d
.	.	2B	.
.	.	.	4e
=60	=60	=60	=60
0r	0r	2.A	4f
.	.	.	4g
.	.	.	1a
.	.	4B	.
.	.	4c	.
.	.	4d	.
.	.	[2e	4g
.	.	.	4f
=61	=61	=61	=61
0r	0r	2e]	2g
.	.	4d	2a
.	.	4c	.
.	.	2d	2b
.	.	2e	[2cc
=62	=62	=62	=62
0r	0r	2.A	4cc]
.	.	.	4b
.	.	.	4a
.	.	4B	4g
.	.	4c	4a
.	.	4d	4b
.	.	4e	4cc
.	.	4c	4a
=63	=63	=63	=63
1r	0r	4d	4b
.	.	4c	4a
.	.	4B	2.a
.	.	4A	.
2r	.	1B	.
.	.	.	8g#iL
.	.	.	8f#iJ
2E	.	.	2g#i
=64	=64	=64	=64
2F	1r	1A	1a
2D	.	.	.
2E	2r	1r	1r
2E	2B	.	.
=65	=65	=65	=65
1AA	2c	0r	0r
.	2A	.	.
2.E	2B	.	.
.	2B	.	.
4F	.	.	.
=66	=66	=66	=66
4G	1E	0r	0r
4A	.	.	.
2.G	.	.	.
.	1B	.	.
4F	.	.	.
4E	.	.	.
4D	.	.	.
=67	=67	=67	=67
2E	2c	0r	0r
2F	2.d	.	.
2.G	.	.	.
.	4c	.	.
.	4B	.	.
4F	4A	.	.
=68	=68	=68	=68
2.E	2G	0r	2r
.	2.c	.	2e
8DL	.	.	.
8CJ	.	.	.
1D	.	.	2f
.	8BL	.	.
.	8AJ	.	.
.	2B	.	2d
=69	=69	=69	=69
0C	2.c	1r	2e
.	.	.	4c
.	8BL	.	4d
.	8AJ	.	.
.	1G	1c	4e
.	.	.	4f
.	.	.	4g
.	.	.	4a
=70	=70	=70	=70
0r	1r	1d	4b
.	.	.	4a
.	.	.	2.a
.	2r	1B	.
.	.	.	8g#iL
.	.	.	8f#iJ
.	2E	.	2g#i
=71	=71	=71	=71
1r	2F	2.A	1a
.	2D	.	.
.	.	4B	.
[1C	2E	2.c	1r
.	4C	.	.
.	4D	8BL	.
.	.	8AJ	.
=72	=72	=72	=72
1C]	4E	1G	0r
.	4F	.	.
.	4G	.	.
.	4A	.	.
1D	2B	2r	.
.	[2A	2d	.
=73	=73	=73	=73
1BB	4A]	2d	1r
.	8G#iL	.	.
.	8F#iJ	.	.
.	2G#i	2d	.
[1AA	[1A	2c	2r
.	.	2A	2a
=74	=74	=74	=74
1AA]	1A]	2.c	2a
.	.	.	2a
.	.	4d	.
1r	1r	4e	2g
.	.	4f	.
.	.	[2g	2e
=75	=75	=75	=75
1r	0r	4g]	2g
.	.	4f	.
.	.	1e	1g
2r	.	.	.
2D	.	4d	4f
.	.	4c	4e
=76	=76	=76	=76
2D	2r	1d	1f
2D	2A	.	.
2C	2A	1e	[1e
2AA	2A	.	.
=77	=77	=77	=77
2C	2G	0r	1e]
1C	2E	.	.
.	2G	.	1r
4BB	[2G	.	.
4AA	.	.	.
=78	=78	=78	=78
1BB	2G]	2r	1r
.	4F	2d	.
.	4E	.	.
[1AA	1F	2d	2r
.	.	2d	2a
=79	=79	=79	=79
1AA]	0E	2c	2a
.	.	2A	2a
1r	.	2c	2g
.	.	[2c	2e
=80	=80	=80	=80
1r	0r	2c]	2g
.	.	4B	1g
.	.	4A	.
2r	.	1B	.
2D	.	.	4f
.	.	.	4e
=81	=81	=81	=81
2D	2r	2A	1f
2D	2A	2F	.
2C	2A	[1c	1e
2AA	2A	.	.
=82	=82	=82	=82
2C	2G	2c]	2r
1C	2E	2G	1e
.	2G	1c	.
4BB	[2G	.	4d
4AA	.	.	4c
=83	=83	=83	=83
2BB	2G]	2r	2d
2C	4F	2c	1e
.	4E	.	.
1D	1F	2B	.
.	.	[2A	2d
=84	=84	=84	=84
0AA	0E	2A]	0e
.	.	4G	.
.	.	4F	.
.	.	1A	.
=85	=85	=85	=85
*M3/1	*M3/1	*M3/1	*M3/1
*met(O|)	*met(O|)	*met(O|)	*met(O|)
0.r	0.r	1r	0g
.	.	0c	.
.	.	.	1e
=86	=86	=86	=86
1r	1r	1A	1f
1r	0G	1B	1g
[1C	.	1c	[1e
=87	=87	=87	=87
1C]	1E	1G	1e]
1AA	1F	1A	1c
1BB	1G	1D	1r
=88	=88	=88	=88
1C	0G	2.E	1.e
.	.	4F	.
1C	.	1G	.
.	.	.	2f
1E	1G	1C	1g
=89	=89	=89	=89
1F	1A	1.c	1f
0D	0F	.	1.f
.	.	4B	.
.	.	4A	.
.	.	1B	.
.	.	.	4e
.	.	.	4d
=90	=90	=90	=90
0.C	0G	0c	[0.e
.	1r	1r	.
=91	=91	=91	=91
1r	1G	0E	1e]
1C	1.A	.	1r
[1D	.	[1F	1r
.	2G	.	.
=92	=92	=92	=92
2D]	1A	2F]	0.r
2C	.	2E	.
1D	1B	1F	.
1E	[1c	1G	.
=93	=93	=93	=93
1.F	2c]	1A	0.r
.	2B	.	.
.	2A	1c	.
2E	2G	.	.
1D	1F	1B	.
=94	=94	=94	=94
1C	0E	1.A	0.r
0BB	.	.	.
.	.	4G#i	.
.	.	4F#i	.
.	1D	1G#i	.
=95	=95	=95	=95
*M2/1	*M2/1	*M2/1	*M2/1
*met(C|)	*met(C|)	*met(C|)	*met(C|)
[0AA	[0E	0A	1r
.	.	.	1a
=96	=96	=96	=96
1AA]	1E]	1r	1cc
1r	1r	1d	2b
.	.	.	[2a
=97	=97	=97	=97
0r	0r	1f	2a]
.	.	.	4g
.	.	.	4f
.	.	2e	2g
.	.	[2d	2a
=98	=98	=98	=98
0r	0r	2d]	2d
.	.	4c	2a
.	.	4B	.
.	.	2c	2r
.	.	2d	2a
=99	=99	=99	=99
0r	0r	2G	2g
.	.	1d	2a
.	.	.	2b
.	.	2c	2cc
=100	=100	=100	=100
0r	1r	2d	2b
.	.	2e	1cc
.	2r	1f	.
.	2A	.	4b
.	.	.	4a
=101	=101	=101	=101
1r	1c	2.e	1g
.	.	8dL	.
.	.	8cJ	.
1D	2B	1d	1r
.	[2A	.	.
=102	=102	=102	=102
1F	2A]	1c	0r
.	4G	.	.
.	4F	.	.
2E	2G	1r	.
[2D	2A	.	.
=103	=103	=103	=103
2D]	2D	0r	0r
4C	2A	.	.
4BB	.	.	.
2C	2r	.	.
2D	2A	.	.
=104	=104	=104	=104
2GG	2G	0r	0r
1D	2A	.	.
.	2B	.	.
2C	2c	.	.
=105	=105	=105	=105
2D	2B	0r	0r
2E	1c	.	.
1F	.	.	.
.	4B	.	.
.	4A	.	.
=106	=106	=106	=106
2E	2G	0r	0r
2C	2.c	.	.
1D	.	.	.
.	8BL	.	.
.	8AJ	.	.
.	2B	.	.
=107	=107	=107	=107
1C	1c	0e	0g
1E	1B	.	.
=108	=108	=108	=108
1E	1B	1e	1g
1E	[1c	1e	1g
=109	=109	=109	=109
0D	2c]	2.A	2.f
.	2.d	.	.
.	.	4G	4g
.	.	4F	2a
.	4c	4E	.
.	[2B	[2F	2b
=110	=110	=110	=110
1C	4B]	4F]	1cc
.	4A	4E	.
.	1A	1E	.
1BB	.	.	1dd
.	2G	2D	.
=111	=111	=111	=111
0AA	2.A	2E	1cc
.	.	2A	.
.	8GL	.	.
.	8FJ	.	.
.	2E	2.c	2r
.	2A	.	[2a
.	.	4d	.
=112	=112	=112	=112
2r	2.c	2e	2a]
2AA	.	2.c	1cc
.	4d	.	.
2.C	2.e	.	.
.	.	4d	.
.	.	[2e	4b
4D	8dL	.	4a
.	8cJ	.	.
=113	=113	=113	=113
2E	2B	2e]	2g
2F	2A	2d	2.a
1E	1B	1e	.
.	.	.	8g#iL
.	.	.	8f#iJ
.	.	.	2g#i
=114	=114	=114	=114
0AA	1A	1c	2a
.	.	.	1cc
.	[1E	1r	.
.	.	.	4b
.	.	.	4a
=115	=115	=115	=115
0r	1E]	0B	4g
.	.	.	4f
.	.	.	2.g
.	1r	.	.
.	.	.	4f
.	.	.	4e
.	.	.	4d
=116	=116	=116	=116
0r	0E	1c	2e
.	.	.	2.a
.	.	1B	.
.	.	.	8g#iL
.	.	.	8f#iJ
.	.	.	2g#i
=117	=117	=117	=117
0AA	1F	1A	0a
.	1E	1c	.
=118	=118	=118	=118
1BB	1D	1d	1r
1AA	1E	1c	1a
=119	=119	=119	=119
1GG	1G	1d	1b
1AA	1E	[1c	1a
=120	=120	=120	=120
0C	1r	2c]	1g
.	.	4B	.
.	.	4A	.
.	1E	1G	2r
.	.	.	2g
=121	=121	=121	=121
1.C	0G	0c	2e
.	.	.	2c
.	.	.	[1cc
4BB	.	.	.
4AA	.	.	.
=122	=122	=122	=122
[0GG	1.G	1.d	2cc]
.	.	.	4b
.	.	.	4a
.	.	.	[1b
.	4F	2c	.
.	4E	.	.
=123	=123	=123	=123
0GG]	1D	2.B	1b]
.	.	4A	.
.	1r	4G	2r
.	.	4A	.
.	.	4B	2g
.	.	4c	.
=124	=124	=124	=124
1r	1D	2d	2.f
.	.	2.c	.
.	.	.	4e
1GG	[1G	.	2d
.	.	8BL	.
.	.	8AJ	.
.	.	2B	[2g
=125	=125	=125	=125
0C	1G]	2.c	4g]
.	.	.	4c
.	.	.	2.cc
.	.	4d	.
.	[1A	1e	.
.	.	.	4b
.	.	.	4a
.	.	.	4g
=126	=126	=126	=126
1.D	2A]	1.d	2f
.	2A	.	1f
.	2A	.	.
2D	2A	2d	2f
=127	=127	=127	=127
2D	1A	2d	2f
2D	.	2d	2f
[1GG	[1B	2d	1g
.	.	[2G	.
=128	=128	=128	=128
1GG]	2B]	4G]	2r
.	.	4A	.
.	2G	4B	2.dd
.	.	4c	.
1GG	1B	1d	.
.	.	.	4cc
.	.	.	2b
=129	=129	=129	=129
1C	2.c	2e	2a
.	.	2e	1g
.	4B	.	.
1D	1A	1d	.
.	.	.	2f#i
=130	=130	=130	=130
0E	0G	2r	1g
.	.	2B	.
.	.	2c	2e
.	.	2B	[2g
=131	=131	=131	=131
1.C	1G	[0c	4g]
.	.	.	4f
.	.	.	4e
.	.	.	4d
.	1A	.	2c
2FF	.	.	[2f
=132	=132	=132	=132
1C	2G	1c]	2f]
.	2E	.	2.e
1D	1F	2r	.
.	.	.	8dL
.	.	.	8cJ
.	.	2A	2d
=133	=133	=133	=133
2r	0E	1.c	[0el
2AA	.	.	.
[1C	.	.	.
.	.	2A	.
=134	=134	=134	=134
2C]	2r	2.c	0e_
2AA	1c	.	.
.	.	4d	.
2.C	.	2e	.
.	4B	4d	.
4D	4A	4c	.
=135	=135	=135	=135
[0E	2G	2B	0e_
.	2E	1c	.
.	2.G	.	.
.	.	4B	.
.	4A	4A	.
=136	=136	=136	=136
1E]	2B	1G	0e_
.	1c	.	.
1AA	.	1A	.
.	4B	.	.
.	4A	.	.
=137	=137	=137	=137
[0El	[0Gl	1B	0e_
.	.	1c	.
=138	=138	=138	=138
00E]	00G]	00B	00e]
=139||	=139||	=139||	=139||
*M2/1	*M2/1	*M2/1	*M2/1
*met(C|)	*met(C|)	*met(C|)	*met(C|)
!!section: Secunda pars: Erat lux
!!!OMD: Secunda pars: Erat lux
0C	0c	0e	0g
=140	=140	=140	=140
1C	1c	0e	0g
[1E	1B	.	.
=141	=141	=141	=141
1E]	2.c	1.e	0g
.	8BL	.	.
.	8AJ	.	.
1E	1B	.	.
.	.	2d	.
=142	=142	=142	=142
0AA	1A	2.c	0a
.	.	4B	.
.	[1c	1A	.
=143	=143	=143	=143
1.C	2c]	[0e	0g
.	4B	.	.
.	4A	.	.
.	[1G	.	.
2D	.	.	.
=144	=144	=144	=144
0E	2G]	1e]	1r
.	2A	.	.
.	1B	1r	[1g
=145	=145	=145	=145
0r	0r	1.c	2g]
.	.	.	2g
.	.	.	1g
.	.	2c	.
=146	=146	=146	=146
0r	0r	1c	2e
.	.	.	2.g
.	.	2B	.
.	.	.	4f
.	.	[2c	4e
.	.	.	4d
=147	=147	=147	=147
0r	0r	4c]	2c
.	.	4d	.
.	.	1e	1g
.	.	4d	4f
.	.	4c	4e
=148	=148	=148	=148
0r	0r	2d	2f
.	.	1e	2g
.	.	.	4c
.	.	.	4d
.	.	2c	4e
.	.	.	4f
=149	=149	=149	=149
0r	0r	1e	4g
.	.	.	4a
.	.	.	4b
.	.	.	4cc
.	.	1f	2dd
.	.	.	[2cc
=150	=150	=150	=150
1r	1.G	1d	4cc]
.	.	.	8bL
.	.	.	8aJ
.	.	.	2b
[1C	.	[1c	[1cc
.	2G	.	.
=151	=151	=151	=151
2C]	1G	2c]	1cc]
2C	.	4B	.
.	.	4A	.
1C	2E	1G	1r
.	[2G	.	.
=152	=152	=152	=152
2BB	4G]	0r	0r
.	4F	.	.
2.C	4E	.	.
.	4D	.	.
.	2C	.	.
4D	.	.	.
[2E	[2G	.	.
=153	=153	=153	=153
2E]	2G]	0r	0r
4D	4F	.	.
4C	4E	.	.
2D	2F	.	.
[2E	2G	.	.
=154	=154	=154	=154
2E]	4C	0r	0r
.	4D	.	.
2C	4E	.	.
.	4F	.	.
1E	4G	.	.
.	4A	.	.
.	4B	.	.
.	4c	.	.
=155	=155	=155	=155
1F	2d	0r	0r
.	2.c	.	.
1D	.	.	.
.	8BL	.	.
.	8AJ	.	.
.	2B	.	.
=156	=156	=156	=156
0C	1.c	1r	1r
.	.	[1e	1g
.	4B	.	.
.	4A	.	.
=157	=157	=157	=157
0r	1G	2e]	1b
.	.	4d	.
.	.	4c	.
.	1G	2d	1b
.	.	[2e	.
=158	=158	=158	=158
1r	1A	4e]	1.cc
.	.	4d	.
.	.	4c	.
.	.	4B	.
1C	[1c	2A	.
.	.	[2G	4b
.	.	.	4a
=159	=159	=159	=159
1E	2c]	2G]	2g
.	4B	2E	2.a
.	4A	.	.
1E	1B	1e	.
.	.	.	8g#iL
.	.	.	8f#iJ
.	.	.	2g#i
=160	=160	=160	=160
1.F	1A	1c	2a
.	.	.	2a
.	2r	1f	[1cc
4E	2A	.	.
4D	.	.	.
=161	=161	=161	=161
1.C	1.c	1.e	2cc]
.	.	.	4b
.	.	.	4a
.	.	.	1g
2D	4B	4d	.
.	4A	4c	.
=162	=162	=162	=162
1E	2.G	1B	2r
.	.	.	2.g
.	4F	.	.
1C	2G	2.c	.
.	.	.	4f
.	[2A	.	[2e
.	.	4B	.
=163	=163	=163	=163
0D	4A]	2A	2e]
.	4G	.	.
.	4F	2B	4d
.	4E	.	4c
.	1F	1A	1d
=164	=164	=164	=164
0AA	[0E	2r	[0e
.	.	1A	.
.	.	2A	.
=165	=165	=165	=165
2r	1E]	1.c	0e]
1AA	.	.	.
.	2r	.	.
2AA	[2E	4B	.
.	.	4A	.
=166	=166	=166	=166
1.C	2E]	2.G	0r
.	2E	.	.
.	.	4F	.
.	[1G	1E	.
4BB	.	.	.
4AA	.	.	.
=167	=167	=167	=167
2.GG	2G]	0r	0r
.	4F	.	.
4AA	4E	.	.
4BB	4D	.	.
4C	4E	.	.
2D	4F	.	.
.	4G	.	.
=168	=168	=168	=168
2.C	2E	0r	0r
.	2.A	.	.
8BBL	.	.	.
8AAJ	.	.	.
1BB	.	.	.
.	8G#iL	.	.
.	8F#iJ	.	.
.	2G#i	.	.
=169	=169	=169	=169
0AA	2.A	2r	1r
.	.	1A	.
.	8GL	.	.
.	8FJ	.	.
.	1E	.	2r
.	.	2A	[2e
=170	=170	=170	=170
0r	0r	1.c	2e]
.	.	.	2e
.	.	.	[1g
.	.	4B	.
.	.	4A	.
=171	=171	=171	=171
0r	0r	2G	2g]
.	.	1c	4f
.	.	.	4e
.	.	.	2d
.	.	2B	[2g
=172	=172	=172	=172
0r	0r	2c	2g]
.	.	2d	2f
.	.	2e	2g
.	.	4d	2a
.	.	4c	.
=173	=173	=173	=173
0r	0r	2d	2b
.	.	2e	2.cc
.	.	2A	.
.	.	.	4b
.	.	2c	[2a
=174	=174	=174	=174
1r	2r	1B	4a]
.	.	.	8g#iL
.	.	.	8f#iJ
.	2G	.	2g#i
2r	2.c	1A	1a
2C	.	.	.
.	4B	.	.
=175	=175	=175	=175
2.F	2A	0r	0r
.	2G	.	.
4E	.	.	.
2D	2B	.	.
2C	[2A	.	.
=176	=176	=176	=176
1D	2A]	0r	0r
.	4G	.	.
.	4F	.	.
2C	1E	.	.
[2AA	.	.	.
=177	=177	=177	=177
4AA]	2F	0r	0r
4BB	.	.	.
2.C	2E	.	.
.	1G	.	.
4BB	.	.	.
[2E	.	.	.
=178	=178	=178	=178
2E]	1F	0r	0r
2D	.	.	.
[1E	1E	.	.
=179	=179	=179	=179
1E]	1G	0e	1b
1AA	[1A	.	[1cc
=180	=180	=180	=180
1AA	1A]	1c	1cc]
1AA	1A	[1e	1cc
=181	=181	=181	=181
0E	0G	2e]	1.b
.	.	2e	.
.	.	1e	.
.	.	.	[2cc
=182	=182	=182	=182
0F	0A	1.c	4cc]
.	.	.	4b
.	.	.	4a
.	.	.	4g
.	.	.	1a
.	.	2d	.
=183	=183	=183	=183
*M3/1	*M3/1	*M3/1	*M3/1
*met(O|)	*met(O|)	*met(O|)	*met(O|)
0E	1B	0e	[0.g
.	1c	.	.
1r	1B	1E	.
=184	=184	=184	=184
1E	1r	1G	0g]
1G	1B	1E	.
1F	1d	1A	1r
=185	=185	=185	=185
1E	1c	1G	0.r
1D	1B	1F	.
[1F	1A	[1A	.
=186	=186	=186	=186
1F]	0c	1A]	0.r
1E	.	1G	.
1D	1B	1F	.
=187	=187	=187	=187
1C	0A	1.E	1r
0BB	.	.	1r
.	.	4D	.
.	.	4C	.
.	1G#i	1D	1b
=188	=188	=188	=188
0AA	0A	1E	0cc
.	.	1r	.
1r	1r	1e	1b
=189	=189	=189	=189
0.r	0.r	1f	1a
.	.	1e	1cc
.	.	1d	1b
=190	=190	=190	=190
1r	1A	1f	0a
1r	1.c	1.e	.
1C	.	.	1g
.	2B	2d	.
=191	=191	=191	=191
1.F	2A	0c	1.a
.	2G	.	.
.	1.A	.	.
2E	.	.	2g
1D	.	1F	1f
.	2G	.	.
=192	=192	=192	=192
1C	1E	1c	0e
0D	0F	0A	.
.	.	.	1d
=193	=193	=193	=193
*M2/1	*M2/1	*M2/1	*M2/1
*met(C|)	*met(C|)	*met(C|)	*met(C|)
[0AA	[0E	1A	[0e
.	.	2r	.
.	.	2A	.
=194	=194	=194	=194
0AA]	0E]	2c	1e]
.	.	2A	.
.	.	2.c	2r
.	.	.	2e
.	.	4d	.
=195	=195	=195	=195
0r	0r	1e	2g
.	.	.	2e
.	.	2r	2.g
.	.	2c	.
.	.	.	4a
=196	=196	=196	=196
0r	0r	2d	1b
.	.	2e	.
.	.	4A	2r
.	.	4B	.
.	.	4c	[2g
.	.	4d	.
=197	=197	=197	=197
0r	0r	2e	2g]
.	.	2c	2a
.	.	2d	2b
.	.	2e	[2e
=198	=198	=198	=198
0r	0r	2A	4e]
.	.	.	4f
.	.	2.e	4g
.	.	.	4a
.	.	.	2b
.	.	4d	.
.	.	2e	[2cc
=199	=199	=199	=199
2r	0r	4A	4cc]
.	.	4B	4b
2AA	.	4c	2a
.	.	4d	.
2C	.	4e	2g
.	.	4d	.
2AA	.	[2e	[2cc
=200	=200	=200	=200
2C	1r	2e]	4cc]
.	.	.	4b
2D	.	4d	1a
.	.	4c	.
1E	2r	1B	.
.	2E	.	2g#i
=201	=201	=201	=201
0r	2F	1A	[0a
.	2D	.	.
.	2.F	2r	.
.	.	2A	.
.	4G	.	.
=202	=202	=202	=202
2r	0A	2.c	0a]
2AA	.	.	.
.	.	4d	.
2C	.	[1e	.
2AA	.	.	.
=203	=203	=203	=203
2.C	2r	0e]	0r
.	2E	.	.
4D	.	.	.
1E	2G	.	.
.	2E	.	.
=204	=204	=204	=204
2r	2.G	0r	0r
2C	.	.	.
.	4A	.	.
2D	1B	.	.
2E	.	.	.
=205	=205	=205	=205
4AA	2r	0r	0r
4BB	.	.	.
4C	1G	.	.
4D	.	.	.
2E	.	.	.
2F	2A	.	.
=206	=206	=206	=206
1G	2B	0r	0r
.	2.E	.	.
2r	.	.	.
.	4F	.	.
2C	4G	.	.
.	4A	.	.
=207	=207	=207	=207
2D	2B	0r	0r
2E	2c	.	.
2F	2.d	.	.
[2G	.	.	.
.	4c	.	.
=208	=208	=208	=208
4G]	4B	0r	0r
4F	4A	.	.
4E	2B	.	.
4D	.	.	.
2E	2G	.	.
2C	[2c	.	.
=209	=209	=209	=209
1F	2c]	0r	1r
.	4B	.	.
.	4A	.	.
4E	4G	.	1g
4F	4A	.	.
4G	4B	.	.
4E	4c	.	.
=210	=210	=210	=210
4F	2d	0r	1f
4E	.	.	.
4D	2.c	.	.
4C	.	.	.
1D	.	.	1f
.	8BL	.	.
.	8AJ	.	.
.	2B	.	.
=211	=211	=211	=211
1C	1c	1r	1e
1C	1c	1e	[1g
=212	=212	=212	=212
1G	1B	1d	1g]
1G	1B	1d	[1g
=213	=213	=213	=213
1C	1G	2c	2g]
.	.	2c	2g
1C	2r	[1e	[1g
.	2E	.	.
=214	=214	=214	=214
1.E	2.G	2e]	1g]
.	.	2e	.
.	4A	.	.
.	2B	[1e	2r
2E	2c	.	2e
=215	=215	=215	=215
1.E	1B	2e]	2.g
.	.	4d	.
.	.	4c	4a
.	1e	2B	2b
2C	.	2E	2cc
=216	=216	=216	=216
1D	2.d	2F	2b
.	.	2f	2.a
.	4c	.	.
1E	1B	[1e	.
.	.	.	8g#iL
.	.	.	8f#iJ
.	.	.	2g#i
=217	=217	=217	=217
1AA	0A	2e]	0a
.	.	4d	.
.	.	4c	.
2r	.	1c	.
2AA	.	.	.
=218	=218	=218	=218
2AA	2r	0r	0r
2GG	2E	.	.
2AA	2E	.	.
2BB	2D	.	.
=219	=219	=219	=219
2.C	2E	0r	0r
.	2F	.	.
4D	.	.	.
4E	2G	.	.
4F	.	.	.
[2G	2E	.	.
=220	=220	=220	=220
4G]	1G	1r	0r
4F	.	.	.
2.E	.	.	.
.	1F	2r	.
8DL	.	.	.
8CJ	.	.	.
2D	.	2A	.
=221	=221	=221	=221
1E	1E	2A	2r
.	.	2G	2e
1r	1r	2A	2e
.	.	2B	2d
=222	=222	=222	=222
0r	0r	2c	2e
.	.	4B	2f
.	.	4A	.
.	.	2B	2g
.	.	[2c	2e
=223	=223	=223	=223
1r	0r	4c]	1g
.	.	4B	.
.	.	2.e	.
2r	.	.	1f
.	.	8dL	.
.	.	8cJ	.
2D	.	2d	.
=224	=224	=224	=224
2C	2r	1e	0e
2AA	2A	.	.
[1C	2G	1E	.
.	2E	.	.
=225	=225	=225	=225
2C]	1.G	0r	0r
2BB	.	.	.
1AA	.	.	.
.	2F	.	.
=226	=226	=226	=226
2.GG	2E	2r	0r
.	2.D	2G	.
4AA	.	.	.
4BB	.	2F	.
4C	4E	.	.
[2D	4F	2D	.
.	4G	.	.
=227	=227	=227	=227
4D]	4A	2F	1r
4C	4B	.	.
2AA	2.A	2.E	.
1BB	.	.	2r
.	8G#iL	8DL	.
.	8F#iJ	8CJ	.
.	2G#i	2D	2dd
=228	=228	=228	=228
0AA	2.A	2E	2cc
.	.	2.c	2a
.	8GL	.	.
.	8FJ	.	.
.	2E	.	2.cc
.	.	4d	.
.	[2c	[2e	.
.	.	.	8bL
.	.	.	8aJ
=229	=229	=229	=229
1r	4c]	4e]	2g
.	4B	4d	.
.	4A	1c	2a
.	4G	.	.
1D	1F	.	4b
.	.	.	4a
.	.	2B	4g
.	.	.	4f
=230	=230	=230	=230
1C	1r	2c	0e
.	.	2G	.
1AA	1A	[1c	.
=231	=231	=231	=231
1.C	1G	2c]	1r
.	.	2d	.
.	1E	1e	1cc
2D	.	.	.
=232	=232	=232	=232
1E	1G	2r	2b
.	.	2e	1cc
1F	1A	2c	.
.	.	2d	4b
.	.	.	4a
=233	=233	=233	=233
0E	2B	0e	2g
.	2c	.	2.a
.	1B	.	.
.	.	.	8g#iL
.	.	.	8f#iJ
.	.	.	2g#i
=234	=234	=234	=234
0AA	0A	1e	0a
.	.	1r	.
=235	=235	=235	=235
0r	1r	0E	1r
.	[1B	.	[1g
=236	=236	=236	=236
0E	1B]	1E	1g]
.	1B	[1G	1g
=237	=237	=237	=237
1E	0G	2G]	0e
.	.	4A	.
.	.	4B	.
[1C	.	[1c	.
=238	=238	=238	=238
1C]	1G	1c]	1g
1C	[1c	1e	1g
=239	=239	=239	=239
1.F	2c]	1A	1a
.	2B	.	.
.	2A	1c	1a
2E	2G	.	.
=240	=240	=240	=240
0D	0F	3%2d	2b
.	.	.	1a
.	.	3%2A	.
.	.	3%2B	.
.	.	.	4g
.	.	.	4f
=241	=241	=241	=241
0C	1G	1c	0e
.	1A	2r	.
.	.	2c	.
=242	=242	=242	=242
2r	1G	2d	0r
2C	.	2e	.
2D	1r	2f	.
2E	.	4e	.
.	.	4d	.
=243	=243	=243	=243
2F	0r	2c	0r
4E	.	2d	.
4D	.	.	.
2C	.	2e	.
2D	.	[2f	.
=244	=244	=244	=244
1E	2r	4f]	0r
.	.	4e	.
.	2G	1e	.
1F	2.A	.	.
.	.	2d	.
.	4B	.	.
=245	=245	=245	=245
1E	1.c	1e	2r
.	.	.	2g
1r	.	1r	2a
.	2B	.	2b
=246	=246	=246	=246
1r	2A	0r	2cc
.	2G	.	2.b
2r	2A	.	.
.	.	.	4a
2C	2c	.	[2a
=247	=247	=247	=247
2D	1B	1r	2a]
2E	.	.	2g#i
[1F	1A	2r	1a
.	.	2c	.
=248	=248	=248	=248
2F]	0r	2d	0r
2E	.	2e	.
2D	.	2f	.
2C	.	[2e	.
=249	=249	=249	=249
1D	1r	4e]	0r
.	.	4d	.
.	.	1d	.
1E	1G	.	.
.	.	2c#i	.
=250	=250	=250	=250
0D	1.A	1d	1r
.	.	1r	[1f
.	2A	.	.
=251	=251	=251	=251
1r	1F	1d	1f]
[1C	[1c	[1e	[1g
=252	=252	=252	=252
1C]	2c]	2e]	2g]
.	2c	2e	2g
[1D	1A	1d	[1f
=253	=253	=253	=253
2D]	2.F	2r	1f]
2D	.	2A	.
.	4G	.	.
[1C	2A	2.c	[1e
.	2G	.	.
.	.	4B	.
=254	=254	=254	=254
1C]	2.c	2A	2e]
.	.	2G	2e
.	4B	.	.
[1D	2A	2F	2.f
.	2G	2E	.
.	.	.	4g
=255	=255	=255	=255
2D]	1.F	2D	2a
2D	.	2d	2b
1AA	.	2c	1cc
.	[2E	[2A	.
=256	=256	=256	=256
0BB	2E]	2A]	1.dd
.	4D	4G#i	.
.	4C	4F#i	.
.	1D	1G#i	.
.	.	.	4cc
.	.	.	4b
=257	=257	=257	=257
[0AA	2r	1A	0cc
.	2E	.	.
.	1F	1r	.
=258	=258	=258	=258
0AA]	1E	1e	1r
.	1A	1f	1a
=259	=259	=259	=259
1E	1r	2.e	1b
.	.	4d	.
1F	1A	2c	1a
.	.	2d	.
=260	=260	=260	=260
1E	1B	1G	2r
.	.	.	2g
1r	1A	2r	2a
.	.	2c	2cc
=261	=261	=261	=261
0r	0r	2d	2b
.	.	2f	2a
.	.	2e	2g
.	.	2d	[2a
=262	=262	=262	=262
0r	0r	2f	2a]
.	.	2.e	2g
.	.	.	1f
.	.	8dL	.
.	.	8cJ	.
.	.	2d	.
=263	=263	=263	=263
1r	2r	1e	0e
.	2G	.	.
2r	2A	1c	.
2C	2c	.	.
=264	=264	=264	=264
2D	2B	0r	0r
2F	2A	.	.
2E	2G	.	.
2D	[2A	.	.
=265	=265	=265	=265
2F	2A]	0r	1r
2.E	2G	.	.
.	1F	.	1a
8DL	.	.	.
8CJ	.	.	.
2D	.	.	.
=266	=266	=266	=266
1E	1E	1r	1g
1C	2r	1c	[1cc
.	2E	.	.
=267	=267	=267	=267
0r	1F	0d	2cc]
.	.	.	4b
.	.	.	4a
.	[1G	.	1b
=268	=268	=268	=268
0C	1G]	0e	2.cc
.	.	.	4b
.	2.c	.	2a
.	.	.	[2g
.	4B	.	.
=269	=269	=269	=269
0D	2A	0d	2g]
.	2B	.	4f#i
.	.	.	4e
.	1A	.	1f#i
=270	=270	=270	=270
0E	1G	1B	1g
.	1B	[1e	2r
.	.	.	[2g
=271	=271	=271	=271
0C	1.c	2e]	4g]
.	.	.	4f
.	.	2e	4e
.	.	.	4d
.	.	1e	2c
.	4B	.	[2cc
.	4A	.	.
=272	=272	=272	=272
1C	2G	2.e	4cc]
.	.	.	4b
.	2.c	.	2.a
.	.	4d	.
1AA	.	2.c	.
.	4B	.	4g
.	[2A	.	4f
.	.	4B	4e
=273	=273	=273	=273
1.D	4A]	1A	2f
.	4G	.	.
.	4F	.	1e
.	4E	.	.
.	1F	2r	.
2D	.	2A	2d
=274	=274	=274	=274
[0AA	0E	1.c	1e
.	.	.	1r
.	.	2B	.
=275	=275	=275	=275
0AA]	1r	2A	1a
.	.	2G	.
.	1A	1F	[1cc
=276	=276	=276	=276
0r	1.c	1E	2cc]
.	.	.	2b
.	.	[1c	2a
.	2B	.	2g
=277	=277	=277	=277
1r	2A	2c]	2f
.	2G	2B	2.e
1D	1F	1A	.
.	.	.	8dL
.	.	.	8cJ
.	.	.	2d
=278	=278	=278	=278
1.G	[0El	1B	[0el
.	.	1r	.
2F	.	.	.
=279	=279	=279	=279
2E	0E_	1G	0e_
2D	.	.	.
2C	.	[1c	.
2BB	.	.	.
=280	=280	=280	=280
2AA	0E_	2c]	0e_
2GG	.	2B	.
1AA	.	2A	.
.	.	[2c	.
=281	=281	=281	=281
[0EE [0E>l	0E_	2c]	0e_
.	.	4B	.
.	.	4A	.
.	.	2B	.
.	.	2c	.
=282	=282	=282	=282
00EE] 00E]>	00E]	00Bl	00e]
==	==	==	==
*-	*-	*-	*-
!!!system-decoration: [*]
!!!RDF**kern: i = editorial accidental
!!!RDF**kern: l = terminal long
!!!ENC: Benjamin Ory
!!!END: 2025/3/2
!!!EED: Benjamin Ory
!!!EEV: 2025/03/02
!!!YEC: Copyright 2025 Benjamin Ory, All Rights Reserved
!!!ONB: Translated from MusicXML on 2025/03/02